X: 03804
T: Lancers "Oriental"
T: Figure IV
B: Henry Ford's "Good Morning"
Z: 2011 John Chambers <jc:trillian.mit.edu>
N: Dancers: Wait first eight bars.
N: Records No.104-B and No.105-B
R: jig
M: 6/8
L: 1/8
K: D
((3A/B/c/) |\
"D"dzd "A7"eze | "D"fef "A7"gfg | "D"aba gfe | "D"def "A7"[e2G2]((3A/B/c/) |
"D"dzd "A7"eze | "D"fef "A7"gfg | "D"aba "A7"gfe | "D"dzz [dF]zHz ||
K: A
"A"cAc eze | [aA]ze [c'c]ze | [a2A2][cA] "rall."[e2c2A2][acA] | "E7"H[g6d6G6] |
"E7"BGB [eG]z[BG] | [gd]z[ed] [bdB]z[gd] | [e2B2G2][dBG] [B2G2][eBG] | "A"H[c6A6E6] |
"A"AEA kc3- | cAc ke3- | ecA Ace | "A7"H[=g3-c3-A3-] "D.C."[g2c2A2] |]


%%sep 5 1 500

